X:1
T: The Wee Pug
C:
R:Strathspey
Q: 128
K:G
M:4/4
L:1/16
|:D2|G3A B3c d4 B3c|dB3 g3e d6 D2|G3A B3c dB3 g3e|ed3 B3G A6 D2|
G3A B3c d4 B3c|dB3 g3e d6 D2|E3F G3A Bd3 eg3|dB3 A3B G6 d2|
g3a g3f e3d Bd3|g3a g3f e6 d2|g3a g3f e3d Bg3|BA3 A3B A6 d2|
g3a g3f e3d Bd3|g3a g3f e6 f2|((3g2a2b2) ((3a2g2f2) ((3g2f2e2) ((3d2c2B2) |1dB3 A3B G6:|2((3d2e2d2) ((3c2B2A2) G6||
